X: 7383
T: Clivigarth
R: reel
M: 4/4
K: Fdorian
B,|G>FED EB,C>A,|G,B,EG FEF>B,|G>FEG, A,cA>F|DB,A,D E3
B,|G>FED EB,C>A,|G,B,EG F=AB>_A2|G>FED EC=B,>G,|A,FDB, E2 z||
B|=ABGE cBB>F|=EFDB, AGG>_E|DEFG cBA>F|DB,DA G3
B|=ABGe edd>F|=EFAd cBB>_e|deg>d e>Bc>e|cBB[A,D] [G,3E3||

